icon/lg/ruby.svg

<?xml version="1.0" encoding="UTF-8" standalone="no" ?>
<svg viewBox="0 0 256 255" version="1.1" xmlns="http://www.w3.org/2000/svg" xmlns:xlink="http://www.w3.org/1999/xlink" preserveAspectRatio="xMidYMid" height="1em" width="1em">
  <defs>
    <linearGradient x1="84.7503645%" y1="111.399353%" x2="58.2543962%" y2="64.5837087%" id="linearGradient-1">
      <stop stop-color="#FB7655" offset="0%"/>
      <stop stop-color="#FB7655" offset="0%"/>
      <stop stop-color="#E42B1E" offset="41%"/>
      <stop stop-color="#990000" offset="99%"/>
      <stop stop-color="#990000" offset="100%"/>
    </linearGradient>
    <linearGradient x1="116.651024%" y1="60.8903211%" x2="1.74616041%" y2="19.2879503%" id="linearGradient-2">
      <stop stop-color="#871101" offset="0%"/>
      <stop stop-color="#871101" offset="0%"/>
      <stop stop-color="#911209" offset="99%"/>
      <stop stop-color="#911209" offset="100%"/>
    </linearGradient>
    <linearGradient x1="75.7744024%" y1="219.327131%" x2="38.9781357%" y2="7.82868176%" id="linearGradient-3">
      <stop stop-color="#871101" offset="0%"/>
      <stop stop-color="#871101" offset="0%"/>
      <stop stop-color="#911209" offset="99%"/>
      <stop stop-color="#911209" offset="100%"/>
    </linearGradient>
    <linearGradient x1="50.012428%" y1="7.23449921%" x2="66.4830414%" y2="79.1354134%" id="linearGradient-4">
      <stop stop-color="#FFFFFF" offset="0%"/>
      <stop stop-color="#FFFFFF" offset="0%"/>
      <stop stop-color="#E57252" offset="23%"/>
      <stop stop-color="#DE3B20" offset="46%"/>
      <stop stop-color="#A60003" offset="99%"/>
      <stop stop-color="#A60003" offset="100%"/>
    </linearGradient>
    <linearGradient x1="46.1741749%" y1="16.347907%" x2="49.9323342%" y2="83.0468449%" id="linearGradient-5">
      <stop stop-color="#FFFFFF" offset="0%"/>
      <stop stop-color="#FFFFFF" offset="0%"/>
      <stop stop-color="#E4714E" offset="23%"/>
      <stop stop-color="#BE1A0D" offset="56%"/>
      <stop stop-color="#A80D00" offset="99%"/>
      <stop stop-color="#A80D00" offset="100%"/>
    </linearGradient>
    <linearGradient x1="36.9653573%" y1="15.5936471%" x2="49.5282324%" y2="92.4776332%" id="linearGradient-6">
      <stop stop-color="#FFFFFF" offset="0%"/>
      <stop stop-color="#FFFFFF" offset="0%"/>
      <stop stop-color="#E46342" offset="18%"/>
      <stop stop-color="#C82410" offset="40%"/>
      <stop stop-color="#A80D00" offset="99%"/>
      <stop stop-color="#A80D00" offset="100%"/>
    </linearGradient>
    <linearGradient x1="13.6086166%" y1="58.3456855%" x2="85.7636612%" y2="-46.7167814%" id="linearGradient-7">
      <stop stop-color="#FFFFFF" offset="0%"/>
      <stop stop-color="#FFFFFF" offset="0%"/>
      <stop stop-color="#C81F11" offset="54%"/>
      <stop stop-color="#BF0905" offset="99%"/>
      <stop stop-color="#BF0905" offset="100%"/>
    </linearGradient>
    <linearGradient x1="27.6242038%" y1="21.1345847%" x2="50.7445145%" y2="79.0557818%" id="linearGradient-8">
      <stop stop-color="#FFFFFF" offset="0%"/>
      <stop stop-color="#FFFFFF" offset="0%"/>
      <stop stop-color="#DE4024" offset="31%"/>
      <stop stop-color="#BF190B" offset="99%"/>
      <stop stop-color="#BF190B" offset="100%"/>
    </linearGradient>
    <linearGradient x1="-20.6671297%" y1="122.281897%" x2="104.241521%" y2="-6.34211007%" id="linearGradient-9">
      <stop stop-color="#BD0012" offset="0%"/>
      <stop stop-color="#BD0012" offset="0%"/>
      <stop stop-color="#FFFFFF" offset="7%"/>
      <stop stop-color="#FFFFFF" offset="17%"/>
      <stop stop-color="#C82F1C" offset="27%"/>
      <stop stop-color="#820C01" offset="33%"/>
      <stop stop-color="#A31601" offset="46%"/>
      <stop stop-color="#B31301" offset="72%"/>
      <stop stop-color="#E82609" offset="99%"/>
      <stop stop-color="#E82609" offset="100%"/>
    </linearGradient>
    <linearGradient x1="58.7919609%" y1="65.2049657%" x2="11.9636556%" y2="50.1275621%" id="linearGradient-10">
      <stop stop-color="#8C0C01" offset="0%"/>
      <stop stop-color="#8C0C01" offset="0%"/>
      <stop stop-color="#990C00" offset="54%"/>
      <stop stop-color="#A80D0E" offset="99%"/>
      <stop stop-color="#A80D0E" offset="100%"/>
    </linearGradient>
    <linearGradient x1="79.3194899%" y1="62.7538068%" x2="23.088288%" y2="17.8876818%" id="linearGradient-11">
      <stop stop-color="#7E110B" offset="0%"/>
      <stop stop-color="#7E110B" offset="0%"/>
      <stop stop-color="#9E0C00" offset="99%"/>
      <stop stop-color="#9E0C00" offset="100%"/>
    </linearGradient>
    <linearGradient x1="92.8800277%" y1="74.1223655%" x2="59.8414537%" y2="39.7039965%" id="linearGradient-12">
      <stop stop-color="#79130D" offset="0%"/>
      <stop stop-color="#79130D" offset="0%"/>
      <stop stop-color="#9E120B" offset="99%"/>
      <stop stop-color="#9E120B" offset="100%"/>
    </linearGradient>
    <radialGradient cx="32.0008013%" cy="40.2100469%" fx="32.0008013%" fy="40.2100469%" r="69.5729556%" id="radialGradient-13">
      <stop stop-color="#A80D00" offset="0%"/>
      <stop stop-color="#A80D00" offset="0%"/>
      <stop stop-color="#7E0E08" offset="99%"/>
      <stop stop-color="#7E0E08" offset="100%"/>
    </radialGradient>
    <radialGradient cx="13.5493795%" cy="40.859922%" fx="13.5493795%" fy="40.859922%" r="88.3861936%" id="radialGradient-14">
      <stop stop-color="#A30C00" offset="0%"/>
      <stop stop-color="#A30C00" offset="0%"/>
      <stop stop-color="#800E08" offset="99%"/>
      <stop stop-color="#800E08" offset="100%"/>
    </radialGradient>
    <linearGradient x1="56.5701955%" y1="101.716594%" x2="3.10480737%" y2="11.9932603%" id="linearGradient-15">
      <stop stop-color="#8B2114" offset="0%"/>
      <stop stop-color="#8B2114" offset="0%"/>
      <stop stop-color="#9E100A" offset="43%"/>
      <stop stop-color="#B3100C" offset="99%"/>
      <stop stop-color="#B3100C" offset="100%"/>
    </linearGradient>
    <linearGradient x1="30.8698732%" y1="35.5989756%" x2="92.4707626%" y2="100.693616%" id="linearGradient-16">
      <stop stop-color="#B31000" offset="0%"/>
      <stop stop-color="#B31000" offset="0%"/>
      <stop stop-color="#910F08" offset="44%"/>
      <stop stop-color="#791C12" offset="99%"/>
      <stop stop-color="#791C12" offset="100%"/>
    </linearGradient>
  </defs>
  <g>
    <path d="M197.467337,167.763618 L51.9461307,254.173266 L240.368563,241.387417 L254.880804,51.3929648 L197.467337,167.763618 Z" fill="url(#linearGradient-1)"/>
    <path d="M240.677307,241.257487 L224.482412,129.479397 L180.369367,187.729045 L240.677307,241.257487 Z" fill="url(#linearGradient-2)"/>
    <path d="M240.896,241.257487 L122.249648,231.943719 L52.5764824,253.930131 L240.896,241.257487 Z" fill="url(#linearGradient-3)"/>
    <path d="M52.7437186,253.954573 L82.3831156,156.854673 L17.161005,170.800884 L52.7437186,253.954573 Z" fill="url(#linearGradient-4)"/>
    <path d="M180.357789,188.050653 L153.085427,81.2253266 L75.0375879,154.384724 L180.357789,188.050653 Z" fill="url(#linearGradient-5)"/>
    <path d="M248.693065,82.7304523 L174.916181,22.4739698 L154.371859,88.8924623 L248.693065,82.7304523 Z" fill="url(#linearGradient-6)"/>
    <path d="M214.190955,0.990552764 L170.799598,24.9696482 L143.424322,0.668944724 L214.190955,0.990552764 Z" fill="url(#linearGradient-7)"/>
    <path d="M0,203.37206 L18.1772864,170.220704 L3.47336683,130.727236 L0,203.37206 Z" fill="url(#linearGradient-8)"/>
    <path d="M2.49567839,129.479397 L17.2896482,171.442814 L81.5726633,157.020623 L154.963618,88.8139899 L175.675176,23.0271357 L143.062834,0 L87.617608,20.7501508 C70.1491457,36.9977889 36.2516583,69.1457286 35.0295477,69.7503518 C33.8203015,70.3678392 12.6456281,110.388744 2.49567839,129.479397 L2.49567839,129.479397 Z" fill="#FFFFFF"/>
    <path d="M54.441809,54.0944724 C92.3015075,16.5563819 141.108744,-5.62170854 159.839196,13.2759799 C178.55807,32.1736683 158.707136,78.0992965 120.847437,115.624523 C82.9877387,153.149749 34.7851256,176.54995 16.0675377,157.652261 C-2.66291457,138.767437 16.5821106,91.6196985 54.441809,54.0944724 L54.441809,54.0944724 Z" fill="url(#linearGradient-9)"/>
    <path d="M52.7437186,253.91598 L82.1515578,156.507337 L179.817487,187.883417 C144.504925,220.996181 105.230151,248.988945 52.7437186,253.91598 L52.7437186,253.91598 Z" fill="url(#linearGradient-10)"/>
    <path d="M155.092261,88.6223116 L180.164824,187.934874 C209.662714,156.918995 236.137487,123.574673 249.103437,82.3316583 L155.092261,88.6223116 L155.092261,88.6223116 Z" fill="url(#linearGradient-11)"/>
    <path d="M248.847437,82.8333668 C258.881608,52.5507538 261.197186,9.1079397 213.880925,1.04201005 L175.056402,22.4868342 L248.847437,82.8333668 L248.847437,82.8333668 Z" fill="url(#linearGradient-12)"/>
    <path d="M0,202.934673 C1.38934673,252.913849 37.4480402,253.658693 52.8080402,254.097367 L17.3282412,171.236985 L0,202.934673 L0,202.934673 Z" fill="#9E1209"/>
    <path d="M155.232482,88.7766834 C177.899417,102.708744 223.58191,130.688643 224.508141,131.203216 C225.947658,132.013668 244.203417,100.418894 248.345729,82.5632161 L155.232482,88.7766834 L155.232482,88.7766834 Z" fill="url(#radialGradient-13)"/>
    <path d="M82.1129648,156.507337 L121.426332,232.355377 C144.672161,219.748342 162.875176,204.388342 179.547337,187.934874 L82.1129648,156.507337 L82.1129648,156.507337 Z" fill="url(#radialGradient-14)"/>
    <path d="M17.1738693,171.339899 L11.6036181,237.668342 C22.1137688,252.024925 36.5732663,253.272764 51.7403015,252.153568 C40.7670352,224.842613 18.8462312,170.233568 17.1738693,171.339899 L17.1738693,171.339899 Z" fill="url(#linearGradient-15)"/>
    <path d="M174.826131,22.6540704 L252.925427,33.6144724 C248.757387,15.9517588 235.957387,4.55396985 214.139497,0.990552764 L174.826131,22.6540704 L174.826131,22.6540704 Z" fill="url(#linearGradient-16)"/>
  </g>
</svg>

<svg width="256" height="255" xmlns="http://www.w3.org/2000/svg" preserveAspectRatio="xMidYMid"><defs><linearGradient x1="84.75%" y1="111.399%" x2="58.254%" y2="64.584%" id="a"><stop stop-color="#FB7655" offset="0%"/><stop stop-color="#FB7655" offset="0%"/><stop stop-color="#E42B1E" offset="41%"/><stop stop-color="#900" offset="99%"/><stop stop-color="#900" offset="100%"/></linearGradient><linearGradient x1="116.651%" y1="60.89%" x2="1.746%" y2="19.288%" id="b"><stop stop-color="#871101" offset="0%"/><stop stop-color="#871101" offset="0%"/><stop stop-color="#911209" offset="99%"/><stop stop-color="#911209" offset="100%"/></linearGradient><linearGradient x1="75.774%" y1="219.327%" x2="38.978%" y2="7.829%" id="c"><stop stop-color="#871101" offset="0%"/><stop stop-color="#871101" offset="0%"/><stop stop-color="#911209" offset="99%"/><stop stop-color="#911209" offset="100%"/></linearGradient><linearGradient x1="50.012%" y1="7.234%" x2="66.483%" y2="79.135%" id="d"><stop stop-color="#FFF" offset="0%"/><stop stop-color="#FFF" offset="0%"/><stop stop-color="#E57252" offset="23%"/><stop stop-color="#DE3B20" offset="46%"/><stop stop-color="#A60003" offset="99%"/><stop stop-color="#A60003" offset="100%"/></linearGradient><linearGradient x1="46.174%" y1="16.348%" x2="49.932%" y2="83.047%" id="e"><stop stop-color="#FFF" offset="0%"/><stop stop-color="#FFF" offset="0%"/><stop stop-color="#E4714E" offset="23%"/><stop stop-color="#BE1A0D" offset="56%"/><stop stop-color="#A80D00" offset="99%"/><stop stop-color="#A80D00" offset="100%"/></linearGradient><linearGradient x1="36.965%" y1="15.594%" x2="49.528%" y2="92.478%" id="f"><stop stop-color="#FFF" offset="0%"/><stop stop-color="#FFF" offset="0%"/><stop stop-color="#E46342" offset="18%"/><stop stop-color="#C82410" offset="40%"/><stop stop-color="#A80D00" offset="99%"/><stop stop-color="#A80D00" offset="100%"/></linearGradient><linearGradient x1="13.609%" y1="58.346%" x2="85.764%" y2="-46.717%" id="g"><stop stop-color="#FFF" offset="0%"/><stop stop-color="#FFF" offset="0%"/><stop stop-color="#C81F11" offset="54%"/><stop stop-color="#BF0905" offset="99%"/><stop stop-color="#BF0905" offset="100%"/></linearGradient><linearGradient x1="27.624%" y1="21.135%" x2="50.745%" y2="79.056%" id="h"><stop stop-color="#FFF" offset="0%"/><stop stop-color="#FFF" offset="0%"/><stop stop-color="#DE4024" offset="31%"/><stop stop-color="#BF190B" offset="99%"/><stop stop-color="#BF190B" offset="100%"/></linearGradient><linearGradient x1="-20.667%" y1="122.282%" x2="104.242%" y2="-6.342%" id="i"><stop stop-color="#BD0012" offset="0%"/><stop stop-color="#BD0012" offset="0%"/><stop stop-color="#FFF" offset="7%"/><stop stop-color="#FFF" offset="17%"/><stop stop-color="#C82F1C" offset="27%"/><stop stop-color="#820C01" offset="33%"/><stop stop-color="#A31601" offset="46%"/><stop stop-color="#B31301" offset="72%"/><stop stop-color="#E82609" offset="99%"/><stop stop-color="#E82609" offset="100%"/></linearGradient><linearGradient x1="58.792%" y1="65.205%" x2="11.964%" y2="50.128%" id="j"><stop stop-color="#8C0C01" offset="0%"/><stop stop-color="#8C0C01" offset="0%"/><stop stop-color="#990C00" offset="54%"/><stop stop-color="#A80D0E" offset="99%"/><stop stop-color="#A80D0E" offset="100%"/></linearGradient><linearGradient x1="79.319%" y1="62.754%" x2="23.088%" y2="17.888%" id="k"><stop stop-color="#7E110B" offset="0%"/><stop stop-color="#7E110B" offset="0%"/><stop stop-color="#9E0C00" offset="99%"/><stop stop-color="#9E0C00" offset="100%"/></linearGradient><linearGradient x1="92.88%" y1="74.122%" x2="59.841%" y2="39.704%" id="l"><stop stop-color="#79130D" offset="0%"/><stop stop-color="#79130D" offset="0%"/><stop stop-color="#9E120B" offset="99%"/><stop stop-color="#9E120B" offset="100%"/></linearGradient><linearGradient x1="56.57%" y1="101.717%" x2="3.105%" y2="11.993%" id="o"><stop stop-color="#8B2114" offset="0%"/><stop stop-color="#8B2114" offset="0%"/><stop stop-color="#9E100A" offset="43%"/><stop stop-color="#B3100C" offset="99%"/><stop stop-color="#B3100C" offset="100%"/></linearGradient><linearGradient x1="30.87%" y1="35.599%" x2="92.471%" y2="100.694%" id="p"><stop stop-color="#B31000" offset="0%"/><stop stop-color="#B31000" offset="0%"/><stop stop-color="#910F08" offset="44%"/><stop stop-color="#791C12" offset="99%"/><stop stop-color="#791C12" offset="100%"/></linearGradient><radialGradient cx="32.001%" cy="40.21%" fx="32.001%" fy="40.21%" r="69.573%" id="m"><stop stop-color="#A80D00" offset="0%"/><stop stop-color="#A80D00" offset="0%"/><stop stop-color="#7E0E08" offset="99%"/><stop stop-color="#7E0E08" offset="100%"/></radialGradient><radialGradient cx="13.549%" cy="40.86%" fx="13.549%" fy="40.86%" r="88.386%" id="n"><stop stop-color="#A30C00" offset="0%"/><stop stop-color="#A30C00" offset="0%"/><stop stop-color="#800E08" offset="99%"/><stop stop-color="#800E08" offset="100%"/></radialGradient></defs><path d="m197.467 167.764-145.52 86.41 188.422-12.787L254.88 51.393l-57.414 116.37Z" fill="url(#a)"/><path d="M240.677 241.257 224.482 129.48l-44.113 58.25 60.308 53.528Z" fill="url(#b)"/><path d="m240.896 241.257-118.646-9.313-69.674 21.986 188.32-12.673Z" fill="url(#c)"/><path d="m52.744 253.955 29.64-97.1L17.16 170.8l35.583 83.154Z" fill="url(#d)"/><path d="M180.358 188.05 153.085 81.226l-78.047 73.16 105.32 33.666Z" fill="url(#e)"/><path d="m248.693 82.73-73.777-60.256-20.544 66.418 94.321-6.162Z" fill="url(#f)"/><path d="M214.191.99 170.8 24.97 143.424.669l70.767.322Z" fill="url(#g)"/><path d="m0 203.372 18.177-33.151-14.704-39.494L0 203.372Z" fill="url(#h)"/><path d="m2.496 129.48 14.794 41.963 64.283-14.422 73.39-68.207 20.712-65.787L143.063 0 87.618 20.75c-17.469 16.248-51.366 48.396-52.588 49-1.21.618-22.384 40.639-32.534 59.73Z" fill="#FFF"/><path d="M54.442 54.094c37.86-37.538 86.667-59.716 105.397-40.818 18.72 18.898-1.132 64.823-38.992 102.349-37.86 37.525-86.062 60.925-104.78 42.027-18.73-18.885.515-66.032 38.375-103.558Z" fill="url(#i)"/><path d="m52.744 253.916 29.408-97.409 97.665 31.376c-35.312 33.113-74.587 61.106-127.073 66.033Z" fill="url(#j)"/><path d="m155.092 88.622 25.073 99.313c29.498-31.016 55.972-64.36 68.938-105.603l-94.01 6.29Z" fill="url(#k)"/><path d="M248.847 82.833c10.035-30.282 12.35-73.725-34.966-81.791l-38.825 21.445 73.791 60.346Z" fill="url(#l)"/><path d="M0 202.935c1.39 49.979 37.448 50.724 52.808 51.162l-35.48-82.86L0 202.935Z" fill="#9E1209"/><path d="M155.232 88.777c22.667 13.932 68.35 41.912 69.276 42.426 1.44.81 19.695-30.784 23.838-48.64l-93.114 6.214Z" fill="url(#m)"/><path d="m82.113 156.507 39.313 75.848c23.246-12.607 41.45-27.967 58.121-44.42l-97.434-31.428Z" fill="url(#n)"/><path d="m17.174 171.34-5.57 66.328c10.51 14.357 24.97 15.605 40.136 14.486-10.973-27.311-32.894-81.92-34.566-80.814Z" fill="url(#o)"/><path d="m174.826 22.654 78.1 10.96c-4.169-17.662-16.969-29.06-38.787-32.623l-39.313 21.663Z" fill="url(#p)"/></svg>
